!!!OTL: EIN VEILCHEN AUF DER WIESE STAND
!!!ARE: Europa, Mitteleuropa, Deutschland
!!!SCT: B0115
!!!YEM: Copyright 1995, estate of Helmut Schaffrath.
**kern
*ICvox
*Ivox
*M2/4
*k[f#]
*G:
{8dd
=1
8.dd
16cc
8b
8a
=2
4g
4a
=3
4b
8r}
{8dd
=4
8.dd
16cc
8b
8a
=5
4g
4a
=6
4b
8r}
{8b
=7
8a
8f#
8g
8e
=8
8e
8d
8r}
{8d
=9
8.cc
16b
8a
8d
=10
8.dd
16cc
8b}
{8d
=11
8.cc
16b
8a
8d
=12
8.dd
16cc
8b}
{8a
=13
8.g
16a
8.b
16cc
=14
16dd
16gg
16dd
16cc
8b
8a
=15
4.g}
==
!!!AGN: Ballade, Romanze
!!!ONB: ESAC (Essen Associative Code) Database: BOEHME
!!!AMT: simple duple
!!!AIN: vox
!!!EED: Helmut Schaffrath
!!!EEV: 1.0
*-
